X:0570
T:Miss Menzies of Culdare's.
T:Strathspey
M:C
L:1/8
Q:1/4=120
I: :| ||
Z:Jack Campin * www.campin.me.uk * 2009
K:D
f/e/ |dA B/A/G/F/ dAdf | dA/d/ B/A/G/F/ {F}E2 Ef/e/ |dA B/A/G/F/ A>Bd>b   | afTe>f d2d:|
b/c'/|d'>abd'     a>fdf| edfd              B2 Bb/c'/|d'>abd'     a>fd>f   |Te>def  d2d
b/c'/|d'>abd'     afdf |Tedfd              B2 B>d   |A>Bde       d>edd'/b/| afTe>f d2d|]

